X: 26414
T: Merry Nicht Under The Tummel Brig
R: reel
M: 4/4
K: Edorian
EBGB E2EG|(3FED AF DEFD|EBGB E2EG|(3FED AF GEE2|
EBGB E2EG|(3FED AF DFAF|EB,B,2 EFGE|FAGF GEE2:|
ef (3gfe bgfg|Bgfg afdf|ef (3gfe bgfe|fagf gee2|
ef (3gfe bgg2|Bgfg afdf|bgaf gfed|(3Bcd AF GEE2:|

